!!!!SEGMENT: T766_Mes-w22p213m2-1h33m1-7.krn
!!!COM: Messiaen, Olivier (Eugène Prosper Charles)
!!!OTL: Turangalîla, Symphony for Solo Piano, Ondes Martenot and Orchestra
!!!OMV: V: Joie du sang des étoiles (Joy of the Blood of the Stars)
!!!OMD:
!!!AGN: Orchestral; Concerto
!!!AGN-sub: Concerto
!!!CNT: French
!!!ODT: 1948 (rev. 1990)
!!!OPR: Turangalîla, Symphony for Solo Piano, Ondes Martenot and Orchestra
!!!filename: T766_Mes-w22p213m2-1h33m1-7.krn
**kern	**dynam	**kern	**dynam	**kern	**dynam	**kern	**dynam	**kern	**dynam	**kern	**dynam	**kern	**dynam	**kern	**kern	**dynam	**kern	**dynam	**kern	**dynam	**kern	**dynam	**kern	**dynam	**kern	**dynam	**kern	**dynam	**kern	**dynam	**kern	**dynam	**kern	**dynam	**kern	**dynam	**kern	**dynam	**kern	**dynam	**kern	**dynam	**kern	**dynam	**kern	**dynam	**kern	**dynam	**kern	**dynam	**kern	**dynam
*grp:A	*	*grp:A	*	*grp:B	*	*grp:B	*	*grp:B	*	*grp:B	*	*grp:B	*	*grp:A	*grp:A	*	*grp:A	*	*grp:A	*	*grp:B	*	*grp:B	*	*grp:B	*	*grp:B	*	*grp:B	*	*grp:B	*	*grp:B	*	*grp:B	*	*grp:A	*	*grp:A	*	*grp:A	*	*grp:B	*	*grp:B	*	*grp:B	*	*grp:A	*	*grp:A	*
*part23	*	*part22	*	*part21	*	*part20	*	*part20	*	*part19	*	*part18	*	*part17	*part17	*	*part16	*	*part15	*	*part14	*	*part13	*	*part12	*	*part11	*	*part11	*	*part10	*	*part9	*	*part8	*	*part7	*	*part7	*	*part6	*	*part5	*	*part4	*	*part3	*	*part2	*	*part1	*
*staff27	*	*staff26	*	*staff25	*	*staff24	*	*staff23	*	*staff22	*	*staff21	*	*staff20	*staff19	*	*staff18	*	*staff17	*	*staff16	*	*staff15	*staf15	*staff14	*	*staff13	*	*staff12	*	*staff11	*	*staff10	*	*staff9	*	*staff8	*	*staff7	*	*staff6	*	*staff5	*	*staff4	*	*staff3	*	*staff2	*	*staff1	*
*ICstr	*	*ICstr	*	*ICstr	*	*ICstr	*	*ICstr	*	*ICstr	*	*ICklav	*	*ICklav	*ICklav	*	*ICklav	*	*ICidio	*	*ICidio	*	*ICbras	*	*ICbras	*	*ICbras	*	*ICbras	*	*ICbras	*	*ICbras	*	*ICbras	*	*ICww	*	*ICww	*	*ICww	*	*ICww	*	*ICww	*	*ICww	*	*ICww	*	*ICww	*
*Icbass	*	*Icello	*	*Iviola	*	*Ivioln	*	*Ivioln	*	*Ivioln	*	*Iondes	*	*Ipiano	*Ipiano	*	*Iclest	*	*Iglock	*	*Itrngl	*	*Itromt	*	*Icornt	*	*Itromp	*	*Itromp	*	*Itromp	*	*Icor	*	*Icor	*	*Ifagot	*	*Ifagot	*	*Iclarb	*	*Iclars	*	*Icangl	*	*Ioboe	*	*Iflt	*	*Ipicco	*
*I"Contrabass	*	*I"Violoncello	*	*I"Viola	*	*I"Violin II divisi	*	*I"Violin II divisi	*	*I"Violin I	*	*I"Ondes Martenot	*	*I"Piano	*I"Piano	*	*I"Celesta	*	*I"Glockenspiel	*	*I"Triangle,\nSuspended Cymbal	*	*I"3 Trombones	*	*I"Cornet in Bb	*	*I"3 Trumpets in C	*	*I"3 Trumpets in C	*	*I"Piccolo Trumpet in D	*	*I"4 Horns in F	*	*I"4 Horns in F	*	*I"3 Bassoons	*	*I"3 Bassoons	*	*I"Bass Clarinet in Bb	*	*I"2 Clarinets in Bb	*	*I"English Horn	*	*I"2 Oboes	*	*I"2 Flutes	*	*I"Piccolo	*
*I'cb	*	*I'vc	*	*I'vla	*	*I'vn div	*	*I'vn div	*	*I'vn	*	*I'ond	*	*I'pf	*I'pf	*	*I'cel	*	*I'glock	*	*I'tri, cymb	*	*I'tn	*	*I'cnto	*	*I'tp	*	*I'tp	*	*I'picc-tp	*	*I'cor-fr	*	*I'cor-fr	*	*I'bn	*	*I'bn	*	*I'b-cl	*	*I'cl	*	*I'cor-en	*	*I'ob	*	*I'fl	*	*I'picc	*
*clefF4	*	*clefF4	*	*clefC3	*	*clefG2	*	*clefG2	*	*clefG2	*	*clefG2	*	*clefF4	*clefG2	*	*clefG2	*	*clefG2	*	*clefX	*	*clefF4	*	*clefG2	*	*clefG2	*	*clefG2	*	*clefG2	*	*clefG2	*	*clefG2	*	*clefF4	*	*clefF4	*	*clefF4	*	*clefG2	*	*clefG2	*	*clefG2	*	*clefG2	*	*clefG2	*
*ITrd7c12	*	*	*	*	*	*	*	*	*	*	*	*	*	*	*	*	*ITrd-7c-12	*	*ITrd-14c-24	*	*	*	*	*	*ITrd1c2	*	*	*	*	*	*ITrd-1c-2	*	*ITrd4c7	*	*ITrd4c7	*	*	*	*	*	*ITrd1c2	*	*ITrd1c2	*	*ITrd4c7	*	*	*	*	*	*ITrd-7c-12	*
*k[]	*	*k[]	*	*k[b-]	*	*k[b-]	*	*k[b-]	*	*k[b-]	*	*k[b-]	*	*k[]	*k[]	*	*k[]	*	*k[]	*	*k[]	*	*k[]	*	*k[b-e-]	*	*k[]	*	*k[]	*	*k[f#c#]	*	*k[b-]	*	*k[b-]	*	*k[]	*	*k[]	*	*k[b-e-]	*	*k[b-]	*	*k[b-]	*	*k[]	*	*k[]	*	*k[]	*
*	*	*	*	*	*	*	*	*	*	*	*	*	*	*	*	*	*	*	*	*	*C:	*	*	*	*	*	*	*	*	*	*	*	*	*	*	*	*	*	*	*	*	*	*	*	*	*	*	*	*	*	*	*
!!LO:TX:omd:tempo:a:t=[Vif, de plus en plus passionné et joyeux]\n[[eighth-dot]=132]
*M3/16	*	*M3/16	*	*M3/16	*	*M3/16	*	*M3/16	*	*M3/16	*	*M3/16	*	*M3/16	*M3/16	*	*M3/16	*	*M3/16	*	*M3/16	*	*M3/16	*	*M3/16	*	*M3/16	*	*M3/16	*	*M3/16	*	*M3/16	*	*M3/16	*	*M3/16	*	*M3/16	*	*M3/16	*	*M3/16	*	*M3/16	*	*M3/16	*	*M3/16	*	*M3/16	*
*	*	*	*	*	*	*	*	*	*	*	*	*	*	*8ba	*8va	*	*	*	*	*	*	*	*	*	*	*	*	*	*	*	*	*	*	*	*	*	*	*	*	*	*	*	*	*	*	*	*	*	*	*	*	*
=1	=1	=1	=1	=1	=1	=1	=1	=1	=1	=1	=1	=1	=1	=1	=1	=1	=1	=1	=1	=1	=1	=1	=1	=1	=1	=1	=1	=1	=1	=1	=1	=1	=1	=1	=1	=1	=1	=1	=1	=1	=1	=1	=1	=1	=1	=1	=1	=1	=1	=1	=1	=1
*	*	*	*	*	*	*	*	*	*	*^	*	*	*	*	*	*	*^	*	*^	*	*^	*	*	*	*	*	*	*	*	*	*	*	*	*	*	*	*	*	*	*	*	*	*	*	*	*	*	*	*^	*	*	*
!LO:TX:a:t=Div.	!	!LO:TX:a:t=Div.	!LO:DY:ed=brack	!LO:TX:a:t=Div.	!LO:DY:ed=brack	!	!LO:DY:ed=brack	!	!LO:DY:ed=brack	!LO:TX:a:t=Div.	!	!LO:DY:ed=brack	!	!LO:DY:ed=brack	!	!	!LO:DY:ed=brack	!	!	!LO:DY:ed=brack	!	!	!LO:DY:ed=brack	!LO:T:a	!LO:T:b	!LO:DY:ed=brack	!	!	!	!	!	!	!	!	!	!	!	!	!	!	!	!	!LO:TX:rj:t=1.	!LO:DY:ed=brack	!	!LO:DY:ed=brack	!	!	!	!	!	!	!	!	!LO:DY:ed=brack	!	!LO:DY:ed=brack
16r	.	16AA-X`>LL 16Cn	f	(16G^KL 16c)	p	16B-X^KL	p	(16en^KL	p	(16g^KL	(16g^KL	p	(16g^KL	p	16AAA-X'LL 16CCn	16aaa-X'LL 16ccccn	ff	16aaa-XLL 16ccccn	8r	f	16aaa-XLL 16ccccn	8rc	f	8ReeL]	8RccL]	p	16%3r	.	16%3r	.	16%3r	.	16%3r	.	16%3r	.	16%3r	.	16%3r	.	8r	.	16AA-X'LL	f	16C'LL	f	16%3r	.	16%3r	.	16%3r	.	16aaa-X'LL	8r	f	16ccccn'LL	f
16r	.	16D-X`>JJ 16F	.	[8fJ [8cc)	.	[8anJ	.	[8fJ)	.	[8ffJ)	[8ddJ)	.	[8ffJ)	.	16DD-X' 16FF	16dddd-X' 16ffff	.	16dddd-XJJ 16ffff	.	.	16dddd-XJJ 16ffff	.	.	.	.	.	.	.	.	.	.	.	.	.	.	.	.	.	.	.	.	.	16D-X'JJ	.	16F'JJ	.	.	.	.	.	.	.	16ddd-X'	.	.	16ffffn'JJ	.
!	!	!	!	!	!	!	!	!	!	!	!	!	!	!	!	!	!	!	!	!	!	!	!	!	!	!	!	!	!	!	!	!	!	!	!	!	!	!	!	!	!LO:TX:rj:t=2.	!LO:DY:ed=brack	!	!	!	!	!	!	!	!	!	!	!	!	!	!	!
!	!LO:DY:ed=brack	!	!	!	!	!	!	!	!	!	!	!	!	!	!	!	!	!	!	!	!	!	!	!	!	!	!	!	!	!	!	!	!	!	!	!	!	!	!	!	!LO:TX:rj:b:t=3.	!	!	!	!	!	!	!	!	!	!	!	!	!	!	!	!
16DDn` 16FF	f	16r	.	.	.	.	.	.	.	.	.	.	.	.	16DDDn'JJ 16FFF	16dddn'JJ 16fff	.	16rggg	16dddn 16fff	.	16rgg	16dddn 16fff	.	[16Ree/Jk	[16Rcc\Jk	.	.	.	.	.	.	.	.	.	.	.	.	.	.	.	16DDn' 16FF	f	16r'	.	16r'	.	.	.	.	.	.	.	16fffn'JJ	16dddn'	.	16r'	.
*	*	*	*	*	*	*	*	*	*	*v	*v	*	*	*	*	*	*	*	*	*	*	*	*	*	*	*	*	*	*	*	*	*	*	*	*	*	*	*	*	*	*	*	*	*	*	*	*	*	*	*	*	*	*	*	*	*	*
=2	=2	=2	=2	=2	=2	=2	=2	=2	=2	=2	=2	=2	=2	=2	=2	=2	=2	=2	=2	=2	=2	=2	=2	=2	=2	=2	=2	=2	=2	=2	=2	=2	=2	=2	=2	=2	=2	=2	=2	=2	=2	=2	=2	=2	=2	=2	=2	=2	=2	=2	=2	=2	=2	=2	=2	=2
16r'	.	16C#X`> 16En/	.	8.f] 8.cc]	.	8.a]	.	8.f]	.	8.dd] 8.ff]	.	8.ff]	.	16CC#X'LL 16EEn	16cccc#X'LL 16eeeen	.	16cccc#X 16eeeen	16r	.	16cccc#X 16eeeen	16rc	.	8.Ree/_	8.Rcc\_	.	16%3r	.	16%3r	.	16%3r	.	16%3r	.	16%3r	.	16%3r	.	16%3r	.	16r	.	16D-X'/	.	16EX'	.	16%3r	.	16%3r	.	16%3r	.	16ddd-X'LL	16r	.	16eeee'	.
16EE-X` 16GG	.	16r'	.	.	.	.	.	.	.	.	.	.	.	16EEE-X' 16GGG	16eee-X' 16ggg	.	16rggg	16eee-X 16ggg	.	16rgg	16eee-X 16ggg	.	.	.	.	.	.	.	.	.	.	.	.	.	.	.	.	.	.	16EE-X' 16GG	.	16r'	.	16r'	.	.	.	.	.	.	.	16ggg'JJ	16eee-X'LL	.	16r'	.
16r'	.	16BB-X`> 16D	.	.	.	.	.	.	.	.	.	.	.	16BBB-X'JJ 16DDn	16bbb-X'JJ 16ddddn	.	16bbb-X 16ddddn	16r	.	16bbb-X 16ddddn	16rc	.	.	.	.	.	.	.	.	.	.	.	.	.	.	.	.	.	.	16r	.	16BB-X'	.	16D'	.	.	.	.	.	.	.	16r	16bbb-X'JJ	.	16dddd'	.
*	*	*	*	*	*	*	*	*	*	*	*	*	*	*	*	*	*v	*v	*	*	*	*	*v	*v	*	*	*	*	*	*	*	*	*	*	*	*	*	*	*	*	*	*	*	*	*	*	*	*	*	*	*	*v	*v	*	*	*
*	*	*	*	*	*	*	*	*	*	*	*	*	*	*	*	*	*	*	*v	*v	*	*	*	*	*	*	*	*	*	*	*	*	*	*	*	*	*	*	*	*	*	*	*	*	*	*	*	*	*	*	*	*	*
!!LO:REH:t=33
=3||	=3||	=3||	=3||	=3||	=3||	=3||	=3||	=3||	=3||	=3||	=3||	=3||	=3||	=3||	=3||	=3||	=3||	=3||	=3||	=3||	=3||	=3||	=3||	=3||	=3||	=3||	=3||	=3||	=3||	=3||	=3||	=3||	=3||	=3||	=3||	=3||	=3||	=3||	=3||	=3||	=3||	=3||	=3||	=3||	=3||	=3||	=3||	=3||	=3||	=3||	=3||	=3||
*k[]	*	*k[]	*	*k[b-e-a-d-g-]	*	*k[b-e-a-d-g-]	*	*k[b-e-a-d-g-]	*	*k[b-e-a-d-g-]	*	*k[b-e-a-d-g-]	*	*k[]	*k[]	*	*k[]	*	*k[]	*	*	*	*k[b-e-a-d-g-]	*	*k[b-e-]	*	*k[]	*	*k[]	*	*k[f#c#]	*	*k[b-]	*	*k[b-]	*	*	*	*	*	*	*	*k[b-e-a-d-g-]	*	*k[b-e-a-d-g-]	*	*k[b-e-a-d-g-]	*	*k[]	*	*k[]	*
*C:	*	*C:	*	*D-:	*	*D-:	*	*D-:	*	*D-:	*	*D-:	*	*C:	*C:	*	*C:	*	*C:	*	*	*	*D-:	*	*B-:	*	*C:	*	*C:	*	*D:	*	*F:	*	*F:	*	*	*	*	*	*	*	*D-:	*	*D-:	*	*D-:	*	*C:	*	*C:	*
*	*	*	*	*	*	*	*	*	*	*	*	*	*	*	*	*	*^	*	*^	*	*^	*	*	*	*	*	*	*	*	*	*	*	*	*	*	*	*	*	*	*	*	*	*	*	*	*	*	*	*^	*	*	*
!	!	!	!	!	!	!	!	!	!	!	!	!	!	!	!	!	!	!	!	!	!	!	!	!	!	!	!	!	!	!LO:TX:rj:a:t=2.	!	!LO:TX:rj:a:t=1.	!	!	!	!	!	!	!	!	!	!	!	!	!	!	!	!	!	!	!	!	!	!	!	!
!	!	!	!	!	!	!	!	!	!	!	!	!	!	!	!	!	!	!	!	!	!	!	!	!	!	!LO:TX:rj:a:t=1. et 2.	!	!	!	!	!	!	!	!	!	!	!	!	!	!	!	!	!	!	!	!	!	!	!	!	!	!	!	!	!	!
16EEn` 16GG#X	.	16r'	.	16%3r	.	16%3r	.	16%3r	.	16%3r	.	16%3r	.	16EEEn'LL 16GGG#X	16eeen'LL 16ggg#X	.	16rfff	16eeen 16ggg#X	.	16rgg	16eeen 16ggg#X	.	8.Ree/_	8.Rcc\_	.	16d-~LL	ff	16%3r	.	16dd-X~LL	ff	16dd-X~LL	ff	16%3r	.	16d-X~LL 16g-X	ff	16e-X~LL 16b-	ff	16EEn' 16GG#X	.	16r'	.	16r'	.	16ee-~LL 16ddd-	ff	16d-~LL	ff	16gg-~LL 16bb-	ff	16r	16eeen'	.	16ggg#X'LL	.
16r	.	16GGn`>LL 16BBn	.	.	.	.	.	.	.	.	.	.	.	16GGGn' 16BBBn	16gggn' 16bbbn	.	16gggnLL 16bbbn	16r	.	16gggnLL 16bbbn	16rc	.	.	.	.	16d-~	.	.	.	16dd-~	.	16dd-~	.	.	.	16d-~ 16g-	.	16e-~ 16b-	.	16r	.	16GGn'LL	.	16C-X'LL	.	16ee-~ 16ddd-	.	16d-~	.	16gg-~ 16bb-	.	16gggn'LL	16r	.	16bbb'	.
16r	.	16C`>JJ 16E	.	.	.	.	.	.	.	.	.	.	.	16CC'JJ 16EE	16cccc'JJ 16eeee	.	16ccccJJ 16eeee	16r	.	16ccccJJ 16eeee	16rc	.	.	.	.	16B-~JJ	.	.	.	16b-X~JJ	.	16b-X~JJ	.	.	.	16c~JJ 16c	.	16e~JJ 16a	.	16r	.	16C'JJ	.	16F-X'JJ	.	16cc~JJ 16bb-	.	16cc~JJ	.	16een~JJ 16aan	.	16ccc'JJ	16r	.	16eeee'JJ	.
=4	=4	=4	=4	=4	=4	=4	=4	=4	=4	=4	=4	=4	=4	=4	=4	=4	=4	=4	=4	=4	=4	=4	=4	=4	=4	=4	=4	=4	=4	=4	=4	=4	=4	=4	=4	=4	=4	=4	=4	=4	=4	=4	=4	=4	=4	=4	=4	=4	=4	=4	=4	=4	=4	=4	=4	=4
*	*	*	*	*	*	*	*	*	*	*	*	*	*	*	*	*	*	*	*	*	*	*	*	*	*	*	*	*	*	*	*	*	*	*	*	*	*	*	*	*	*	*	*	*	*	*	*	*	*	*^	*	*	*	*	*	*
16DD` 16FFn	.	16r'	.	16%3r	.	16%3r	.	16%3r	.	16%3r	.	16%3r	.	16DDD'LL 16FFF	16ddd'LL 16fff	.	16rfff	16ddd 16fff	.	16rgg	16ddd 16fff	.	16Ree/KL]	16Rcc\KL]	.	8A-~L	.	16%3r	.	8a-X~L	.	8a-X~L	.	16%3r	.	8B-~L 8d-X	.	8f~L 8f	.	16DD' 16FFn	.	16r'	.	16r'	.	8dd-~L 8aa-	.	8b-~L	.	8dd-~L	8ff~L	.	16fff'LL	16ddd'	.	16r'	.
16r'	.	16C#X`> 16E/	.	.	.	.	.	.	.	.	.	.	.	16CC#X' 16EE	16cccc#X' 16eeee	.	16cccc#X 16eeee	16r	.	16cccc#X 16eeee	16rB	.	[8Ree/J	[8Rcc\J	.	.	.	.	.	.	.	.	.	.	.	.	.	.	.	16r	.	16C#X'	.	16F-X'	.	.	.	.	.	.	.	.	16ddd-X'	16r	.	16eeee'	.
16EE-X` 16GGn	.	16r'	.	.	.	.	.	.	.	.	.	.	.	16EEE-X'JJ 16GGG	16eee-X'JJ 16ggg	.	16rfff	16eee-X 16ggg	.	16rgg	16eee-X 16ggg	.	.	.	.	16FJk	.	.	.	16fJk	.	16fJk	.	.	.	16GnJk 16f-X	.	16c-XJk 16en	.	16EE-X' 16GGn	.	16r'	.	16r'	.	16gJk 16ff-X	.	16gJk	.	16ffJk	16bnJk	.	16ggg'JJ	16eee-X'	.	16r'	.
*	*	*	*	*	*	*	*	*	*	*	*	*	*	*	*	*	*	*	*	*	*	*	*	*	*	*	*	*	*	*	*	*	*	*	*	*	*	*	*	*	*	*	*	*	*	*	*	*	*	*v	*v	*	*	*	*	*	*
=5	=5	=5	=5	=5	=5	=5	=5	=5	=5	=5	=5	=5	=5	=5	=5	=5	=5	=5	=5	=5	=5	=5	=5	=5	=5	=5	=5	=5	=5	=5	=5	=5	=5	=5	=5	=5	=5	=5	=5	=5	=5	=5	=5	=5	=5	=5	=5	=5	=5	=5	=5	=5	=5	=5	=5	=5
16r'	.	16BB`> 16D#X	.	16%3r	.	16%3r	.	16%3r	.	16%3r	.	16%3r	.	16BBBn'LL 16DD#X	16bbbn'LL 16dddd#X	.	16bbbn 16dddd#X	16r	.	16bbbn 16dddd#X	16rc	.	8Ree/L]	8Rcc\L]	.	(16E-^KL	.	16%3r	.	16e-X^KL	.	(16e-X^KL	.	16%3r	.	(16G-X^KL 16a-X	.	(16A-X^KL 16cn	.	16r	.	16BB'	.	16E-'	.	(16a-^KL 16ee-	.	(16g-X^KL	.	(16cc^KL 16ee-	.	8r	16bbbn'LL	.	16dddd#X'LL	.
16FFn` 16AA	.	16r'	.	.	.	.	.	.	.	.	.	.	.	16FFFn' 16AAA	16fffn' 16aaa	.	16rfff	16fffn 16aaa	.	16rccc	16fffn 16aaa	.	.	.	.	[8A-J)	.	.	.	[8a-XJ	.	[8a-XJ)	.	.	.	[8A-XJ [8d-X)	.	[8B-J [8f)	.	16FF' 16AA	.	16r'	.	16r'	.	[8b-J [8dd-)	.	[8fJ)	.	[8ffJ [8aa-)	.	.	16fffn'JJ	.	16aaa'	.
16r	.	16FF#X`> 16AA#X	.	.	.	.	.	.	.	.	.	.	.	16FFF#X'JJ 16AAA#X	16fff#X'JJ 16aaa#X	.	16fff#X 16aaa#X	16r	.	16fff#X 16aaa#X	16rc	.	[16Ree/Jk	[16Rcc\Jk	.	.	.	.	.	.	.	.	.	.	.	.	.	.	.	16r	.	16FF#X'	.	16BB-'	.	.	.	.	.	.	.	16fff#X'	16r	.	16aaa#X'JJ	.
=6	=6	=6	=6	=6	=6	=6	=6	=6	=6	=6	=6	=6	=6	=6	=6	=6	=6	=6	=6	=6	=6	=6	=6	=6	=6	=6	=6	=6	=6	=6	=6	=6	=6	=6	=6	=6	=6	=6	=6	=6	=6	=6	=6	=6	=6	=6	=6	=6	=6	=6	=6	=6	=6	=6	=6	=6
16r	.	16BB`> 16D#X	.	16%3r	.	16%3r	.	16%3r	.	16%3r	.	16%3r	.	16BBB'LL 16DD#X	16bbb'LL 16dddd#X	.	16bbb 16dddd#X	16r	.	16bbb 16dddd#X	16rB	.	8.Ree/]	8.Rcc\]	.	8.A-]	.	16%3r	.	8.a-X]	.	8.a-X]	.	16%3r	.	8.A-X] 8.d-X]	.	8.B-] 8.f]	.	16r	.	16BB'	.	16E-'	.	8.b-] 8.dd-]	.	8.f]	.	8.ff] 8.aa-]	.	16bb'LL	16r	.	16dddd#X'	.
16DDn` 16FFn	.	16r'	.	.	.	.	.	.	.	.	.	.	.	16DDDn' 16FFFn	16dddn' 16fffn	.	16rfff	16dddn 16fffn	.	16rccc	16dddn 16fffn	.	.	.	.	.	.	.	.	.	.	.	.	.	.	.	.	.	.	16DDn' 16FF	.	16r'	.	16r'	.	.	.	.	.	.	.	16fffn'	16dddn'	.	16r'	.
16r'	.	16C#X`> 16En/	.	.	.	.	.	.	.	.	.	.	.	16CC#X'JJ 16EEn	16cccc#X'JJ 16eeeen	.	16cccc#X 16eeeen	16r	.	16cccc#X 16eeeen	16rB	.	.	.	.	.	.	.	.	.	.	.	.	.	.	.	.	.	.	16r	.	16C#X'	.	16EX'	.	.	.	.	.	.	.	16ddd-X'JJ	16r	.	16eeee'	.
!	!	!	!	!	!	!	!	!LO:TX:a:rj:t=Div. en 3	!	!	!	!	!	!	!	!	!	!	!	!	!	!	!	!	!	!	!	!	!	!	!	!	!	!	!	!	!	!	!	!	!	!	!	!	!	!	!	!	!	!	!	!	!	!	!	!
=7	=7	=7	=7	=7	=7	=7	=7	=7	=7	=7	=7	=7	=7	=7	=7	=7	=7	=7	=7	=7	=7	=7	=7	=7	=7	=7	=7	=7	=7	=7	=7	=7	=7	=7	=7	=7	=7	=7	=7	=7	=7	=7	=7	=7	=7	=7	=7	=7	=7	=7	=7	=7	=7	=7	=7	=7
*	*	*	*	*	*	*	*	*	*	*	*	*	*	*	*	*	*	*	*	*	*	*	*	*	*	*	*	*	*	*^	*	*	*	*	*	*	*	*	*	*	*	*	*	*	*	*	*	*	*	*	*	*	*	*	*	*
!	!	!	!	!LO:TX:a:t=Unis	!	!LO:TX:a:rj:t=2.	!	!LO:TX:a:rj:t=1.	!	!	!	!	!	!	!	!	!	!	!	!	!	!	!	!	!	!	!	!	!	!LO:TX:rj:t=2.	!LO:TX:b:rj:t=3.	!	!	!	!	!	!	!	!	!	!	!	!	!	!	!	!	!	!	!	!	!	!	!	!	!	!
!	!	!	!	!	!	!LO:TX:b:rj:t=3.	!	!	!	!LO:TX:a:t=Unis	!	!	!	!	!	!	!	!	!	!	!	!	!	!	!	!	!	!	!	!	!	!	!	!	!	!	!	!	!	!	!	!	!	!	!	!	!	!	!	!	!	!	!	!	!	!	!
16EE-X` 16GGn	.	16r'	.	16dd-~LL	ff	16ee-~LL 16gg-	.	16bb-~LL	ff ff	16ddd-~LL	ff	16ddd-~LL	ff	16EEE-X'LL 16GGGn	16eee-X'LL 16gggn	.	16rfff	16eee-X 16gggn	.	16rccc	16eee-X 16gggn	.	[8.Ree/	[8.Rcc\	.	16d-~LL	.	16dd-X~LL	ff	16dd-X~LL	16dd-~LL	.	16%3r	.	16ccc#~LL	ff	16d-X~LL 16g-X	.	16e-X~LL 16b-	.	16EE-X' 16GG	.	16r'	.	16r'	.	16ee-~LL 16ddd-	.	16d-~LL	.	16gg-~LL 16bb-	.	16ggg'	16eee-X'LL	.	16r'	.
16r'	.	16Cn`> 16En/	.	16dd-~	.	16ee-~ 16gg-	.	16bb-~	.	16ddd-~	.	16ddd-~	.	16CCn' 16EEn	16ccccn' 16eeeen	.	16ccccn 16eeeen	16r	.	16ccccn 16eeeen	16rB	.	.	.	.	16d-~	.	16dd-~	.	16dd-~	16dd-~	.	.	.	16ccc#~	.	16d-~ 16g-	.	16e-~ 16b-	.	16r	.	16Cn'	.	16EX'	.	16ee-~ 16ddd-	.	16d-~	.	16gg-~ 16bb-	.	16r	16cccn'	.	16eeeen'LL	.
16GG-X` 16BB-X	.	16r'	.	16b-~JJ	.	16cc~JJ 16een	.	16aan~JJ	.	16bb-~JJ	.	16bb-~JJ	.	16FFF#X'JJ 16AAA#X	16fff#X'JJ 16aaa#X	.	16rfff	16fff#X 16aaa#X	.	16rccc	16fff#X 16aaa#X	.	.	.	.	16B-~JJ	.	16b-~JJ	.	16b-X~JJ	16b-~JJ	.	.	.	16aa#X~JJ	.	16cn~JJ 16c	.	16e~JJ 16a	.	16GG-X' 16BB-X	.	16r'	.	16r'	.	16cc~JJ 16bb-	.	16cc~JJ	.	16een~JJ 16aan	.	16r	16ggg-X'JJ	.	16bbb-X'JJ	.
*	*	*	*	*	*	*	*	*	*	*	*	*	*	*	*	*	*	*	*	*	*	*	*	*	*	*	*	*	*	*v	*v	*	*	*	*	*	*	*	*	*	*	*	*	*	*	*	*	*	*	*	*	*	*	*	*	*	*
=8	=8	=8	=8	=8	=8	=8	=8	=8	=8	=8	=8	=8	=8	=8	=8	=8	=8	=8	=8	=8	=8	=8	=8	=8	=8	=8	=8	=8	=8	=8	=8	=8	=8	=8	=8	=8	=8	=8	=8	=8	=8	=8	=8	=8	=8	=8	=8	=8	=8	=8	=8	=8	=8	=8	=8	=8
*	*	*	*	*	*	*	*	*	*	*	*	*	*	*	*	*	*	*	*	*	*	*	*	*	*	*	*	*	*	*	*	*	*	*	*	*	*	*	*	*	*	*	*	*	*	*	*	*	*	*^	*	*	*	*	*	*
!	!	!	!	!	!	!	!	!	!	!	!	!	!	!	!	!	!	!	!	!	!	!	!	!	!	!	!	!	!	!LO:TX:t=2. et 3.	!	!	!	!	!	!	!	!	!	!	!	!	!	!	!	!	!	!	!	!	!	!	!	!	!	!	!
16r	.	16FF`>LL 16AA/	.	8a-~L	.	8b-~L 8ff	.	8dd-~L	.	8aa-~L	.	8aa-~L	.	16FFFn'LL 16AAAn	16fffn'LL 16aaan	.	16fffnLL 16aaan	8r	.	16fffnLL 16aaan	8rA	.	16Ree/KL]	16Rcc\KL]	.	8A-~L	.	8a-X~L	.	8a-X~L	.	16%3r	.	8gg#X~L	.	8B-~L 8d-X	.	8f~L	.	8r	.	16FF'LL	.	16AA'LL	.	8dd-~L 8aa-	.	8b-~L	.	8dd-~L	8ff~L	.	16fff'LL	8r	.	16aaa'LL	.
16r	.	16BB-X`>JJ 16D	.	.	.	.	.	.	.	.	.	.	.	16BBB-X' 16DD	16bbb-X' 16dddd	.	16bbb-XJJ 16dddd	.	.	16bbb-XJJ 16dddd	.	.	8Ree/J	8Rcc\J	.	.	.	.	.	.	.	.	.	.	.	.	.	.	.	.	.	16BB-X'JJ	.	16D'JJ	.	.	.	.	.	.	.	.	16bb-X'	.	.	16ddddn'JJ	.
16DD` 16FF	.	16r'	.	16fJk	.	16gnJk 16een	.	16cc-XJk	.	16ffJk	.	16ffJk	.	16DDD'JJ 16FFF	16ddd'JJ 16fff	.	16rfff	16ddd 16fff	.	16rccc	16ddd 16fff	.	.	.	.	16FJk	.	16fJk	.	16fJk	.	.	.	16ee#XJk	.	16GJk 16f-X	.	16c-XJk 16e	.	16DD' 16FF	.	16r'	.	16r'	.	16gJk 16ff-X	.	16gJk	.	16ffJk	16bnJk	.	16fff'JJ	16ddd'	.	16r'	.
*	*	*	*	*	*	*	*	*	*	*	*	*	*	*	*	*	*	*	*	*	*	*	*	*	*	*	*	*	*	*	*	*	*	*	*	*	*	*	*	*	*	*	*	*	*	*	*	*	*	*v	*v	*	*	*	*	*	*
=9	=9	=9	=9	=9	=9	=9	=9	=9	=9	=9	=9	=9	=9	=9	=9	=9	=9	=9	=9	=9	=9	=9	=9	=9	=9	=9	=9	=9	=9	=9	=9	=9	=9	=9	=9	=9	=9	=9	=9	=9	=9	=9	=9	=9	=9	=9	=9	=9	=9	=9	=9	=9	=9	=9	=9	=9
*	*	*	*	*	*	*^	*	*	*	*	*	*	*	*	*	*	*	*	*	*	*	*	*	*	*	*	*	*	*	*	*	*	*	*	*	*	*	*	*	*	*	*	*	*	*	*	*	*	*	*	*	*	*	*	*	*
16r'	.	16C#X` 16En	.	(16e-^KL	.	(16cc^KL	16g-X^KL	.	(16a-^KL	.	(16ee-^KL	.	(16ee-^KL	.	16CC#X'LL 16EEn	16cccc#X'LL 16eeeen	.	16cccc#X 16eeeen	16r	.	16cccc#X 16eeeen	16rB	.	8.Ree/	8.Rcc\	.	(16E-^KL	.	(16e-^KL	.	(16e-X^KL	.	16%3r	.	(16dd#X^KL	.	(16G-X^KL 16a-X	.	(16A-X^KL 16c	.	16r	.	16D-X'	.	16EX'	.	(16a-^KL 16ee-	.	(16g-X^KL	.	(16cc^KL 16ee-	.	16ddd-X'LL	16r	.	16eeee'	.
!	!	!	!	!	!	!LO:T:b	!LO:T:a	!	!	!	!	!	!	!	!	!	!	!	!	!	!	!	!	!	!	!	!	!	!	!	!	!	!	!	!	!	!	!	!	!	!	!	!	!	!	!	!	!	!	!	!	!	!	!	!	!	!
16EE-X` 16GGn	.	16r'	.	[8a-J)	.	[8dd-J)	[8ffJ	.	[8b-J)	.	[8aa-J)	.	[8aa-J)	.	16EEE-X' 16GGGn	16eee-X' 16gggn	.	16rfff	16eee-X 16gggn	.	16rccc	16eee-X 16gggn	.	.	.	.	[8A-J)	.	[8a-XJ)	.	[8a-XJ)	.	.	.	[8gg#XJ)	.	[8A-XJ [8d-X)	.	[8B-J [8f)	.	16EE-X' 16GGn	.	16r'	.	16r'	.	[8b-J [8dd-)	.	[8fJ)	.	[8ffJ [8aa-)	.	16ggg'JJ	16eee-X'LL	.	16r'	.
16r'	.	16D-X` 16F	.	.	.	.	.	.	.	.	.	.	.	.	16DD-X'JJ 16FF	16dddd-X'JJ 16ffff	.	16dddd-X 16ffff	16r	.	16dddd-X 16ffff	16rc	.	.	.	.	.	.	.	.	.	.	.	.	.	.	.	.	.	.	16r	.	16D-X'	.	16F'	.	.	.	.	.	.	.	16r	16ddd-X'JJ	.	16ffff'	.
*	*	*	*	*	*	*	*	*	*	*	*	*	*	*	*X8ba	*X8va	*	*	*	*	*	*	*	*	*	*	*	*	*	*	*	*	*	*	*	*	*	*	*	*	*	*	*	*	*	*	*	*	*	*	*	*	*	*	*	*	*
*	*	*	*	*	*	*	*	*	*	*	*	*	*	*	*	*	*	*v	*v	*	*	*	*	*v	*v	*	*	*	*	*	*	*	*	*	*	*	*	*	*	*	*	*	*	*	*	*	*	*	*	*	*	*	*v	*v	*	*	*
*	*	*	*	*	*	*v	*v	*	*	*	*	*	*	*	*	*	*	*	*	*v	*v	*	*	*	*	*	*	*	*	*	*	*	*	*	*	*	*	*	*	*	*	*	*	*	*	*	*	*	*	*	*	*	*	*
=	=	=	=	=	=	=	=	=	=	=	=	=	=	=	=	=	=	=	=	=	=	=	=	=	=	=	=	=	=	=	=	=	=	=	=	=	=	=	=	=	=	=	=	=	=	=	=	=	=	=	=	=
*-	*-	*-	*-	*-	*-	*-	*-	*-	*-	*-	*-	*-	*-	*-	*-	*-	*-	*-	*-	*-	*-	*-	*-	*-	*-	*-	*-	*-	*-	*-	*-	*-	*-	*-	*-	*-	*-	*-	*-	*-	*-	*-	*-	*-	*-	*-	*-	*-	*-	*-	*-	*-
!!!system-decoration: [(s1,s2,s3,s4,s5,s6,s7,s8)][(s9,s10,s11,s12,s13,s14,s15)][(s16)][(s17,s18)][({(s19,s20)})][(s21)][(s22,s23,s24,s25,s26,s27)]
!!!RDF**kern: > = above
!!!EED: Gabriella Vici
!!!EEV: 2021/11/11
!!!EED2: Jason Lee
!!!Suter_Work_ID: Mes-22
!!!Suter_Example_Number: 766
!!!Suter_Example_ID: Mes-22/213/2-1[33]1-7
!!!Premiere_Location: Boston,United States
!!!Other_Tsigs: none
!!!Full_Unit_Duration: 6:26
!!!First_Publication_Year: 1953
!!!First_Public_Performance_Year: 1949
!!!Example_Total_Measures: 9
!!!Example_Timestamp_Duration: 4
!!!Example_Start_Tsig_Type: simple triple
!!!Example_Start_Tsig_Mean_Beat_Rate: 396
!!!Example_Start_Tsig_Beat_Rate: 396
!!!Example_Start_Tsig_Beat: sixteenth
!!!Example_Start_Tsig: 3/16
!!!Example_Start_Timestamp: 3:49
!!!Example_Start_Tempo_Expression: [Vif, de plus en plus passionné et joyeux]
!!!Example_Start_Notated_Beat_Rate: [132]
!!!Example_Start_Notated_Beat: [dotted-eighth]
!!!Example_Start_Measure: 455
!!!Example_Metadata_Validated: Y
!!!Example_End_Timestamp: 3:53
!!!Example_End_Measure: 463
!!!Example_Dataset: T
!!!Editorial_Comments: Example Start Notated Beat and Example Start Notated Beat Rate [dotted-eighth=132] based on most recent notated beat rate (SWFU, m. 233). Example Start Tempo Expression [Vif, de plus en plus passionné et joyeux] based on most recent notated tempo expression (SWFU, m. 233).
!!!Death_Place: Paris,France
!!!Death_Date: 27-Apr-1992
!!!Changing_Tsig: no
!!!Birth_Place: Avignon,France
!!!Birth_Date: 10-Dec-1908
!!!Audio_Example_Quarter_Note_Tempo:
!!!Audio_Example_Duration:
!!!EEV2: 2022/03/23
